packages/kaspersky-hexa-ui-icons/src/iconsSVGs/24/WaterSensor.svg

<svg width="24" height="24" viewBox="0 0 24 24" fill="none" xmlns="http://www.w3.org/2000/svg">
<path fill-rule="evenodd" clip-rule="evenodd" d="M12.6805 2.26721L12 3L11.3195 2.26721C11.7032 1.91093 12.2968 1.91093 12.6805 2.26721ZM12 4.39805C11.8862 4.51273 11.7607 4.64063 11.6257 4.78053C10.9841 5.44503 10.1311 6.37437 9.28087 7.43719C8.42791 8.50339 7.5942 9.68345 6.97794 10.8499C6.35319 12.0325 6 13.1121 6 14C6 17.4201 8.8235 20 12 20C15.1765 20 18 17.4201 18 14C18 13.1121 17.6468 12.0325 17.0221 10.8499C16.4058 9.68345 15.5721 8.50339 14.7191 7.43719C13.8689 6.37437 13.0159 5.44503 12.3743 4.78053C12.2393 4.64063 12.1138 4.51273 12 4.39805ZM11.3195 2.26721C11.3195 2.26721 11.3195 2.26721 12 3C12.6805 2.26721 12.6805 2.26721 12.6805 2.26721L12.6827 2.26932L12.6875 2.2738L12.7046 2.28977L12.7674 2.3491C12.8215 2.40055 12.8998 2.47552 12.9987 2.5719C13.1964 2.76461 13.4771 3.04332 13.8132 3.39134C14.4841 4.08622 15.3811 5.06313 16.2809 6.18781C17.1779 7.30911 18.0942 8.5978 18.7904 9.91569C19.4782 11.2175 20 12.6379 20 14C20 18.5799 16.2251 22 12 22C7.77492 22 4 18.5799 4 14C4 12.6379 4.52181 11.2175 5.20956 9.91569C5.9058 8.5978 6.82209 7.30911 7.71913 6.18781C8.61887 5.06313 9.51593 4.08622 10.1868 3.39134C10.5229 3.04332 10.8036 2.76461 11.0013 2.5719C11.1002 2.47552 11.1785 2.40055 11.2326 2.3491L11.2954 2.28977L11.3125 2.2738L11.3173 2.26932L11.3195 2.26721Z" fill="black"/>
</svg>

<svg xmlns="http://www.w3.org/2000/svg" width="24" height="24" fill="none" viewBox="0 0 24 24"><path fill="#000" fill-rule="evenodd" d="M12.6805 2.2672 12 3l-.6805-.7328a1 1 0 0 1 1.361 0M12 4.398a38 38 0 0 0-.3743.3825c-.6416.6645-1.4946 1.5939-2.3448 2.6567-.853 1.0662-1.6867 2.2462-2.303 3.4127C6.3532 12.0325 6 13.1121 6 14c0 3.4201 2.8235 6 6 6s6-2.5799 6-6c0-.8879-.3532-1.9675-.9779-3.1501-.6163-1.1665-1.45-2.3465-2.303-3.4127-.8502-1.0628-1.7032-1.9922-2.3448-2.6567A38 38 0 0 0 12 4.398m-.6805-2.1308L12 3l.6805-.7328.0022.0021.0048.0045.0171.016.0628.0593c.0541.0515.1324.1264.2313.2228.1977.1927.4784.4714.8145.8194.6709.695 1.5679 1.6718 2.4677 2.7965.897 1.1213 1.8133 2.41 2.5095 3.7279C19.4782 11.2175 20 12.6379 20 14c0 4.5799-3.7749 8-8 8s-8-3.4201-8-8c0-1.3621.5218-2.7825 1.2096-4.0843C5.9058 8.5978 6.822 7.309 7.719 6.1878c.8998-1.1247 1.7968-2.1016 2.4677-2.7965.3361-.348.6168-.6267.8145-.8194.0989-.0964.1772-.1713.2313-.2228l.0628-.0593.0171-.016.0048-.0045z"/></svg>
